assets/svg/1F554.svg

<svg xmlns="http://www.w3.org/2000/svg" viewBox="0 0 64 64" enable-background="new 0 0 64 64"><circle fill="#e0e7ec" cx="31.868" cy="31.868" r="29.521"/><path fill="#d1d7da" d="m52.08 46.977c-16.305 0-29.521-13.216-29.521-29.521 0-5.422 1.486-10.483 4.04-14.85-13.724 2.537-24.13 14.546-24.13 29.01 0 16.305 13.216 29.521 29.521 29.521 10.884 0 20.365-5.905 25.485-14.669-1.751.323-3.549.514-5.394.514"/><path fill="#98a9b4" d="m0 31.868c0 17.571 14.295 31.868 31.866 31.868s31.868-14.297 31.868-31.868-14.296-31.868-31.868-31.868-31.866 14.297-31.866 31.868m6.204 0c0-14.15 11.513-25.662 25.662-25.662 14.15 0 25.664 11.513 25.664 25.662 0 14.15-11.513 25.664-25.664 25.664-14.15 0-25.662-11.512-25.662-25.664"/><path fill="#85939c" d="m33.74 10.996c0-1.434-.845-2.595-1.883-2.595l0 0c-1.039 0-1.883 1.162-1.883 2.595v20.995c0 1.434.844 2.593 1.883 2.593l0 0c1.039 0 1.883-1.159 1.883-2.593v-20.995"/><path fill="#788288" d="m37.07 47.664c.637 1.284 1.907 1.949 2.839 1.488l0 0c.931-.461 1.171-1.875.536-3.157l-6.744-13.619c-.635-1.282-1.908-1.947-2.839-1.486l0 0c-.929.461-1.171 1.875-.536 3.158l6.744 13.616"/></svg>

<?xml version="1.0" encoding="UTF-8" standalone="no"?>
<!-- Generator: Adobe Illustrator 16.0.0, SVG Export Plug-In . SVG Version: 6.00 Build 0)  -->

<svg
   xmlns:dc="http://purl.org/dc/elements/1.1/"
   xmlns:cc="http://creativecommons.org/ns#"
   xmlns:rdf="http://www.w3.org/1999/02/22-rdf-syntax-ns#"
   xmlns:svg="http://www.w3.org/2000/svg"
   xmlns="http://www.w3.org/2000/svg"
   xmlns:sodipodi="http://sodipodi.sourceforge.net/DTD/sodipodi-0.dtd"
   xmlns:inkscape="http://www.inkscape.org/namespaces/inkscape"
   version="1.1"
   id="Layer_1"
   x="0px"
   y="0px"
   width="64px"
   height="64px"
   viewBox="0 0 64 64"
   enable-background="new 0 0 64 64"
   xml:space="preserve"
   inkscape:version="0.48.5 r10040"
   sodipodi:docname="1F554.svg"
   inkscape:export-filename="D:\TESTINGEMOJI\SVGTEST\1F554.png"
   inkscape:export-xdpi="90"
   inkscape:export-ydpi="90"><metadata
   id="metadata4008"><rdf:RDF><cc:Work
       rdf:about=""><dc:format>image/svg+xml</dc:format><dc:type
         rdf:resource="http://purl.org/dc/dcmitype/StillImage" /><dc:title></dc:title></cc:Work></rdf:RDF></metadata><defs
   id="defs4006" /><sodipodi:namedview
   pagecolor="#ffffff"
   bordercolor="#666666"
   borderopacity="1"
   objecttolerance="10"
   gridtolerance="10"
   guidetolerance="10"
   inkscape:pageopacity="0"
   inkscape:pageshadow="2"
   inkscape:window-width="640"
   inkscape:window-height="480"
   id="namedview4004"
   showgrid="false"
   inkscape:zoom="3.6875"
   inkscape:cx="32"
   inkscape:cy="32"
   inkscape:window-x="526"
   inkscape:window-y="304"
   inkscape:window-maximized="0"
   inkscape:current-layer="Layer_1" />
<g
   id="g3992">
	<circle
   fill="#E0E7EC"
   cx="31.868"
   cy="31.868"
   r="29.521"
   id="circle3994" />
	<path
   fill="#D1D7DA"
   d="M52.084,46.977c-16.305,0-29.521-13.216-29.521-29.521c0-5.422,1.486-10.483,4.036-14.85   C12.875,5.143,2.472,17.152,2.472,31.611c0,16.305,13.216,29.521,29.521,29.521c10.884,0,20.365-5.905,25.485-14.669   C55.727,46.786,53.929,46.977,52.084,46.977z"
   id="path3996" />
	<path
   fill="#98A9B4"
   d="M0,31.868c0,17.571,14.295,31.868,31.866,31.868s31.868-14.297,31.868-31.868S49.438,0,31.866,0   S0,14.297,0,31.868z M6.204,31.868c0-14.149,11.513-25.662,25.662-25.662c14.151,0,25.664,11.513,25.664,25.662   c0,14.151-11.513,25.664-25.664,25.664C17.717,57.532,6.204,46.02,6.204,31.868z"
   id="path3998" />
	<path
   fill="#85939C"
   d="M33.74,10.996c0-1.434-0.845-2.595-1.883-2.595l0,0c-1.039,0-1.883,1.162-1.883,2.595v20.995   c0,1.434,0.844,2.593,1.883,2.593l0,0c1.039,0,1.883-1.159,1.883-2.593V10.996z"
   id="path4000" />
	<path
   fill="#788288"
   d="M37.073,47.664c0.637,1.284,1.907,1.949,2.839,1.488l0,0c0.931-0.461,1.171-1.875,0.536-3.157   l-6.744-13.619c-0.635-1.282-1.908-1.947-2.839-1.486l0,0c-0.929,0.461-1.171,1.875-0.536,3.158L37.073,47.664z"
   id="path4002" />
</g>
</svg>
